!!!!SEGMENT: pl-stab--26a--008_nowakiewicz-kazimierz--missa-in-d-osanna.krn
!!!cenid: 18xx:3518
!!!COM: Nowakiewicz, Kazimierz
!!!COM-rismID: pe30020309
!!!CDT: <1800->1824
!!!CNT: Polish
!!!OPR: Missa in D
!!!OTL: Osanna
!!!OMV: 008
!!!PDT: 1810
!!!AGN:
!!!SMS-siglum: PL-STAb
!!!SMS-shelfmark: 26a
!!!SMS-shelfwork: M
!!!SMS-variant:
!!!SMS-altvar:
!!!NIFC-rismSourceID: 301050704
!!!NIFC-islandoraID: pl-stab:3636
!!!URL-pdf-islandora: https://repozytorium.nifc.pl/islandora/object/pl-stab%3A3636/datastream/PDF/view
!!!URL-scan: https://polish.musicsources.pl/pl/lokalizacje/galeria/rekopisy/4469 @EN{Scan on Polish Music Sources Website} @PL{Skany w portalu Dziedzictwo Muzyki Polskiej w otwartym dostępie}
!!!ONB-nifc: UWAGA: części Mszy: 1. Kyrie, 2. Gloria, 3. Credo, 4. Et incarnatus, 5. Et resurrexit, 6. Sanctus, 7. Benedictus, 8. Osanna, 9. Agnus Dei, 10. Dona nobis
!!!AIN: 1 alto 1 bass 2 cor 2 oboe 1 organ 1 soprn 1 tenor 1 viola 1 violn
!!!key: D
!!!filter-modern: sic -sq | shed -e "s/TX(.*):t=P:/tx$1:t=P:/LG" | shed -k -e "s/LO:N:vis/LO:n:vis:/L" | shed -e "s/LO:HP:(a|b|rj|t)/LO:hp:$1/L" | shed -e "s/yy//" | shed -e "s/^(\d+[\/\\]right)/$1yy/I;s/^(\d+[\/\\]left)/$1yy/I" | shed -e "s/:rj/:RJ/L" | shed -k -e "s/([^a-gA-Gn#X-])[<>]/$1/g" | shed -e "s/^(X?)rep$/$1REP/I" | shed -e "s/LO:DY:(a|b|rj|t|)/LO:dy:$1/L" | shed -e "s/-//B" | autostem -r | tie -s  | modori -m | humtr -p
**kern	**kern	**dynam	**kern	**dynam	**kern	**dynam	**kern	**text	**dynam	**kern	**text	**dynam	**kern	**text	**dynam	**kern	**text	**dynam	**kern	**dynam	**kern	**dynam	**kern	**dynam	**kern	**dynam
*	*	*	*group4	*	*group4	*	*group3	*	*	*group3	*	*	*group3	*	*	*group3	*	*	*group2	*	*group2	*	*group1	*	*group1	*
*part11	*part11	*part11	*part10	*	*part9	*part9	*part8	*part8	*	*part7	*part7	*	*part6	*part6	*part6	*part5	*part5	*part5	*part4	*part4	*part3	*part3	*part2	*part2	*part1	*part1
*staff12	*staff11	*staff12	*staff10	*	*staff9	*	*staff8	*staff8	*	*staff7	*staff7	*	*staff6	*staff6	*	*staff5	*staff5	*	*staff4	*	*staff3	*	*staff2	*	*staff1	*
*I"Organo.	*I"Organo.	*	*I"Alto Viola	*	*I"Violino SecuNdo 1mo	*	*I"Baſso	*	*	*I"Tenor	*	*	*I"Alto	*	*	*I"Canto	*	*	*I"Clarino Secundo et Cornu	*	*I"Clarino Primo et Cornu	*	*I"Oboe Secundo	*	*I"Oboe Primo	*
*I'org	*I'org	*	*I'vla	*	*I'vl 1 & vl 2	*	*I'B	*	*	*I'T	*	*	*I'A	*	*	*I'S	*	*	*I'cor 2 & clno 2 in D	*	*I'cor 1 & clno 1 in D	*	*I'ob 2	*	*I'ob 1	*
*Iorgan	*Iorgan	*	*Iviola	*	*Ivioln	*	*Ibass	*	*	*Itenor	*	*	*Ialto	*	*	*Isoprn	*	*	*Icor	*	*Icor	*	*Ioboe	*	*Ioboe	*
*ICklav	*ICklav	*	*ICstr	*	*ICstr	*	*ICvox	*	*	*ICvox	*	*	*ICvox	*	*	*ICvox	*	*	*ICbras	*	*ICbras	*	*ICww	*	*ICww	*
*IGcont	*IGcont	*	*	*	*	*	*	*	*	*	*	*	*	*	*	*	*	*	*	*	*	*	*	*	*	*
*mI"Organo	*mI"Organo	*	*mI"Viola	*	*mI"Violino I e II	*	*mI"Basso	*	*	*mI"Tenore	*	*	*	*	*	*mI"Soprano	*	*	*mI"Clarino II e Corno II in D	*	*mI"Clarino I e Corno I in D	*	*mI"Oboe II	*	*mI"Oboe I	*
*clefF4	*clefG2	*	*clefC3	*	*clefG2	*	*clefF4	*	*	*clefC4	*	*	*clefC3	*	*	*clefC1	*	*	*clefG2	*	*clefG2	*	*clefG2	*	*clefG2	*
*	*	*	*	*	*	*	*	*	*	*mclefGv2	*	*	*mclefG2	*	*	*mclefG2	*	*	*	*	*	*	*	*	*	*
*	*	*	*	*	*	*	*	*	*	*	*	*	*	*	*	*	*	*	*ITrd6c10	*	*ITrd6c10	*	*	*	*	*
*k[f#c#]	*k[f#c#]	*	*k[f#c#]	*	*k[f#c#]	*	*k[f#c#]	*	*	*k[f#c#]	*	*	*k[f#c#]	*	*	*k[f#c#]	*	*	*k[f#c#]	*	*k[f#c#]	*	*k[f#c#]	*	*k[f#c#]	*
*D:	*D:	*	*D:	*	*D:	*	*D:	*	*	*D:	*	*	*D:	*	*	*D:	*	*	*D:	*	*D:	*	*D:	*	*D:	*
*M2/2	*M2/2	*	*M2/2	*	*M2/2	*	*M2/2	*	*	*M2/2	*	*	*M2/2	*	*	*M2/2	*	*	*M2/2	*	*M2/2	*	*M2/2	*	*M2/2	*
*met(c|)	*met(c|)	*	*met(c|)	*	*met(c|)	*	*met(c|)	*	*	*met(c|)	*	*	*met(c|)	*	*	*met(c|)	*	*	*met(c|)	*	*met(c|)	*	*met(c|)	*	*met(c|)	*
*mmet(c|)	*mmet(c|)	*	*mmet(c|)	*	*mmet(c|)	*	*mmet(c|)	*	*	*mmet(c|)	*	*	*mmet(c|)	*	*	*mmet(c|)	*	*	*mmet(c|)	*	*mmet(c|)	*	*mmet(c|)	*	*mmet(c|)	*
*2\right	*2\right	*	*2\right	*	*2\right	*	*2\right	*	*	*2\right	*	*	*2\right	*	*	*2\right	*	*	*2\right	*	*2\right	*	*2\right	*	*2\right	*
=1	=1	=1	=1	=1	=1	=1	=1	=1	=1	=1	=1	=1	=1	=1	=1	=1	=1	=1	=1	=1	=1	=1	=1	=1	=1	=1
!!!OMD:
!!!OMD-mod: Allegro
!	!	!LO:MO:null:mod=!LO&colon;DY&colon;ed=brack	!LO:TX:a:i:t=allo aſsai:mod=	!LO:MO:null:mod=!LO&colon;DY&colon;ed=brack	!	!	!LO:TX:a:i:t=allo:mod=	!	!	!LO:TX:t=P:problem=oznaczenie metrum z kropką	!	!	!LO:TX:a:i:t=allo:mod=	!	!LO:TX:a:i:t=allo:mod=	!LO:TX:a:i:t=2:mod=	!	!	!LO:TX:a:i:t=allo:mod=	!	!LO:TX:a:i:t=allo:mod=	!	!	!	!	!LO:MO:null:mod=!LO&colon;DY&colon;ed=brack
!	!LO:TX:t=P:problem=w źródle dwa klucze zapisane na jednej linii	!	!LO:TX:t=P:problem=partia zapisana inną ręką	!	!	!	!	!	!	!	!	!	!	!	!	!	!	!	!	!	!	!	!	!	!	!
!LO:TX:a:i:t=allo aſsai:mod=	!	!LO:MO:null:mod=f	!LO:TX:t=P:znaki:c#f#:problem	!LO:MO:null:mod=f	!LO:TX:a:i:t=Allo aſsai:mod=	!LO:DY:b:fr	!LO:TX:t=P:znaki:C#F#:problem	!	!	!LO:TX:a:i:t=allo:mod=	!	!	!LO:TX:t=P:znaki:c#f#:problem	!	!	!LO:TX:t=P:znaki:cc#f#:problem	!	!	!LO:TX:i:t=in D.:mod=	!	!LO:TX:i:t=in D:mod=	!	!LO:TX:a:i:t=allo:mod=	!LO:DY:b:t=f.	!	!LO:MO:null:mod=f
4D\	1ryy	.	4D/	.	4d/	f	4D\	O-	.	1r	.	.	1r	.	.	1r	.	.	1r	.	1r	.	4dd\	f	4ff#\	.
!	!	!	!	!	!	!	!LO:SIC:s=8E	!	!	!	!	!	!	!	!	!	!	!	!	!	!	!	!	!	!	!
4r	.	.	8E/L	.	8c#/L	.	8E\L	-san-	.	.	.	.	.	.	.	.	.	.	.	.	.	.	4r	.	4r	.
!	!	!	!	!	!	!	!LO:SIC:s=8F#	!	!	!	!	!	!	!	!	!	!	!	!	!	!	!	!	!	!	!
.	.	.	8F#/J	.	8d/J	.	8F#\J	-na	.	.	.	.	.	.	.	.	.	.	.	.	.	.	.	.	.	.
2r	.	.	8G/L	.	8e/L	.	8G\L	in	.	.	.	.	.	.	.	.	.	.	.	.	.	.	2r	.	2r	.
!	!	!	!	!	!	!	!LO:SIC:s=8AJ	!	!	!	!	!	!	!	!	!	!	!	!	!	!	!	!	!	!	!
.	.	.	8A/	.	8f#/	.	8A\	.	.	.	.	.	.	.	.	.	.	.	.	.	.	.	.	.	.	.
!	!	!	!	!	!	!	!LO:SIC:s=8BL	!	!	!	!	!	!	!	!	!	!	!	!	!	!	!	!	!	!	!
.	.	.	8B/	.	8g/	.	8B\	ex-	.	.	.	.	.	.	.	.	.	.	.	.	.	.	.	.	.	.
.	.	.	8c#/J	.	8a/J	.	8c#\J	.	.	.	.	.	.	.	.	.	.	.	.	.	.	.	.	.	.	.
=2	=2	=2	=2	=2	=2	=2	=2	=2	=2	=2	=2	=2	=2	=2	=2	=2	=2	=2	=2	=2	=2	=2	=2	=2	=2	=2
!	!	!	!LO:TX:t=P:problem=mixed beam	!	!LO:SIC:v:s=8f#L	!	!LO:TX:t=P:problem=mixed beam	!	!	!	!	!	!	!	!	!	!	!	!	!	!	!	!	!	!	!
!	!	!	!	!	!	!	!LO:SIC:s=8d	!	!	!	!	!	!	!	!	!	!	!	!	!	!	!	!	!	!	!
4d\	1ryy	.	8d\L	.	8g/L	.	8d\L	-cel-	.	8r	.	.	1r	.	.	1r	.	.	1r	.	1r	.	4dd\	.	4ff#\	.
!	!	!	!	!	!	!	!LO:SIC:s=8D	!	!	!	!	!	!	!	!	!	!	!	!	!	!	!	!	!	!	!
.	.	.	8F#/	.	8d/	.	8D/J	-sis	.	8F#/	O-	.	.	.	.	.	.	.	.	.	.	.	.	.	.	.
4r	.	.	8G/	.	8e/	.	4r	.	.	8G/	-san-	.	.	.	.	.	.	.	.	.	.	.	4r	.	4r	.
.	.	.	8A/J	.	8f#/J	.	.	.	.	8A/	-na	.	.	.	.	.	.	.	.	.	.	.	.	.	.	.
2r	.	.	8B/L	.	8g/L	.	2r	.	.	8B\	in	.	.	.	.	.	.	.	.	.	.	.	2r	.	2r	.
.	.	.	8c#/	.	8a/	.	.	.	.	8c#\	ex-	.	.	.	.	.	.	.	.	.	.	.	.	.	.	.
!	!	!	!	!	!	!	!	!	!	!LO:SIC:s=8dL	!	!	!	!	!	!	!	!	!	!	!	!	!	!	!	!
.	.	.	8d/	.	8b/	.	.	.	.	8d\	-cel-	.	.	.	.	.	.	.	.	.	.	.	.	.	.	.
!	!	!	!	!	!	!	!	!	!	!LO:SIC:s=8eJ	!	!	!	!	!	!	!	!	!	!	!	!	!	!	!	!
.	.	.	8e/J	.	8cc#/J	.	.	.	.	8e\	.	.	.	.	.	.	.	.	.	.	.	.	.	.	.	.
=3	=3	=3	=3	=3	=3	=3	=3	=3	=3	=3	=3	=3	=3	=3	=3	=3	=3	=3	=3	=3	=3	=3	=3	=3	=3	=3
!	!	!	!LO:TX:t=P:problem=mixed beam	!	!LO:TX:t=P:problem=mixed beam	!	!	!	!	!	!	!	!	!	!	!	!	!	!	!	!	!	!	!	!	!
4D\	1ryy	.	8f#\L	.	8dd\L	.	1r	.	.	4f#\	-sis	.	1r	.	.	8r	.	.	1r	.	1r	.	4dd\	.	4ff#\	.
!	!	!	!	!	!	!	!	!	!	!	!	!	!	!	!	!LO:SIC:s=8a	!	!	!	!	!	!	!	!	!	!
.	.	.	8A/	.	8f#/	.	.	.	.	.	.	.	.	.	.	8a\L	O-	.	.	.	.	.	.	.	.	.
4r	.	.	8B/	.	8g/	.	.	.	.	4r	.	.	.	.	.	8b\	-san-	.	.	.	.	.	4r	.	4r	.
!	!	!	!	!	!	!	!	!	!	!	!	!	!	!	!	!LO:SIC:s=8cc#	!	!	!	!	!	!	!	!	!	!
.	.	.	8c#/J	.	8a/J	.	.	.	.	.	.	.	.	.	.	8cc#\J	-na	.	.	.	.	.	.	.	.	.
2r	.	.	8d\L	.	8b\L	.	.	.	.	2r	.	.	.	.	.	8dd\	in	.	.	.	.	.	2r	.	2r	.
.	.	.	8e\	.	8cc#\	.	.	.	.	.	.	.	.	.	.	8ee\	ex-	.	.	.	.	.	.	.	.	.
.	.	.	8f#\	.	8dd\	.	.	.	.	.	.	.	.	.	.	8ff#\	-cel-	.	.	.	.	.	.	.	.	.
.	.	.	8g\J	.	8ee\J	.	.	.	.	.	.	.	.	.	.	8gg\	-sis	.	.	.	.	.	.	.	.	.
=4	=4	=4	=4	=4	=4	=4	=4	=4	=4	=4	=4	=4	=4	=4	=4	=4	=4	=4	=4	=4	=4	=4	=4	=4	=4	=4
*tremolo	*	*	*tremolo	*	*tremolo	*	*	*	*	*	*	*	*	*	*	*	*	*	*	*	*	*	*	*	*	*
!	!	!	!	!	!	!	!	!	!LO:MO:null:mod=!LO&colon;DY&colon;ed=brack	!	!	!LO:MO:null:mod=!LO&colon;DY&colon;ed=brack	!	!	!	!	!	!LO:MO:null:mod=!LO&colon;DY&colon;ed=brack	!	!	!	!LO:DY:b:t=f.	!	!	!	!
!	!	!LO:DY:b:t=for	!	!	!	!	!	!	!	!	!	!	!	!	!	!	!	!	!	!LO:DY:b:t=for	!	!	!	!	!	!LO:DY:b:t=fr.
!	!	!LO:MO:null:mod=.	!	!	!	!	!	!	!LO:MO:null:mod=f	!	!	!LO:MO:null:mod=f	!	!	!LO:DY:a:t=for	!	!	!LO:MO:null:mod=f	!	!	!	!	!	!	!	!LO:MO:null:mod=.
8A\L	1ryy	f	16a\LL	.	16ff#\LL	.	2A\	O-	.	2D/	O-	.	2d\	O-	f	2aa\	O-	.	2A/	f	2a\	f	2a/	.	2aa\	f
.	.	.	16a\	.	16ff#\	.	.	.	.	.	.	.	.	.	.	.	.	.	.	.	.	.	.	.	.	.
8A\	.	.	16a\	.	16ff#\	.	.	.	.	.	.	.	.	.	.	.	.	.	.	.	.	.	.	.	.	.
.	.	.	16a\	.	16ff#\JJ	.	.	.	.	.	.	.	.	.	.	.	.	.	.	.	.	.	.	.	.	.
8A\	.	.	16a\	.	16aa\LL	.	.	.	.	.	.	.	.	.	.	.	.	.	.	.	.	.	.	.	.	.
.	.	.	16a\	.	16aa\	.	.	.	.	.	.	.	.	.	.	.	.	.	.	.	.	.	.	.	.	.
8A\J	.	.	16a\	.	16aa\	.	.	.	.	.	.	.	.	.	.	.	.	.	.	.	.	.	.	.	.	.
.	.	.	16a\JJ	.	16aa\JJ	.	.	.	.	.	.	.	.	.	.	.	.	.	.	.	.	.	.	.	.	.
*Xtremolo	*	*	*	*	*	*	*	*	*	*	*	*	*	*	*	*	*	*	*	*	*	*	*	*	*	*
8F#\L	.	.	16f#\LL	.	16ff#\LL	.	4F#\	-san-	.	4F#/	-san-	.	4f#\	-san-	.	4ff#\	-san-	.	4F#/	.	4f#\	.	4f#/	.	4ff#\	.
.	.	.	16f#\	.	16ff#\	.	.	.	.	.	.	.	.	.	.	.	.	.	.	.	.	.	.	.	.	.
8F#\	.	.	16f#\	.	16ff#\	.	.	.	.	.	.	.	.	.	.	.	.	.	.	.	.	.	.	.	.	.
.	.	.	16f#\JJ	.	16ff#\JJ	.	.	.	.	.	.	.	.	.	.	.	.	.	.	.	.	.	.	.	.	.
8D\	.	.	16d\LL	.	16dd\LL	.	4D\	.	.	4A/	.	.	4a\	.	.	4dd\	.	.	4D/	.	4d\	.	4d/	.	4dd\	.
.	.	.	16d\	.	16dd\	.	.	.	.	.	.	.	.	.	.	.	.	.	.	.	.	.	.	.	.	.
8D\J	.	.	16d\	.	16dd\	.	.	.	.	.	.	.	.	.	.	.	.	.	.	.	.	.	.	.	.	.
.	.	.	16d\JJ	.	16dd\JJ	.	.	.	.	.	.	.	.	.	.	.	.	.	.	.	.	.	.	.	.	.
=5	=5	=5	=5	=5	=5	=5	=5	=5	=5	=5	=5	=5	=5	=5	=5	=5	=5	=5	=5	=5	=5	=5	=5	=5	=5	=5
*tremolo	*	*	*	*	*	*	*	*	*	*	*	*	*	*	*	*	*	*	*	*	*	*	*	*	*	*
!	!	!	!	!	!	!	!	!LO:MO:mod=-na	!	!	!	!	!	!	!	!	!	!	!	!	!	!	!	!	!	!
8AA/L	1ryy	.	16A/LL	.	16a/LL	.	2AA/	-na.	.	4A/	-na	.	4a\	-na	.	4a\	-na	.	2AA/	.	2A/	.	2a/	.	4a/	.
.	.	.	16A/	.	16a/	.	.	.	.	.	.	.	.	.	.	.	.	.	.	.	.	.	.	.	.	.
8AA/	.	.	16A/	.	16a/	.	.	.	.	.	.	.	.	.	.	.	.	.	.	.	.	.	.	.	.	.
.	.	.	16A/	.	16a/	.	.	.	.	.	.	.	.	.	.	.	.	.	.	.	.	.	.	.	.	.
8AA/	.	.	16A/	.	16a/	.	.	.	.	4r	.	.	4r	.	.	4r	.	.	.	.	.	.	.	.	4a/	.
.	.	.	16A/	.	16a/	.	.	.	.	.	.	.	.	.	.	.	.	.	.	.	.	.	.	.	.	.
8AA/J	.	.	16A/	.	16a/	.	.	.	.	.	.	.	.	.	.	.	.	.	.	.	.	.	.	.	.	.
.	.	.	16A/JJ	.	16a/JJ	.	.	.	.	.	.	.	.	.	.	.	.	.	.	.	.	.	.	.	.	.
*Xtremolo	*	*	*	*	*	*	*	*	*	*	*	*	*	*	*	*	*	*	*	*	*	*	*	*	*	*
8F#\L	.	.	16F#/LL	.	16f#/LL	.	2r	.	.	2r	.	.	2r	.	.	2r	.	.	4F#/	.	4F#/	.	4f#/	.	4f#/	.
.	.	.	16F#/	.	16f#/	.	.	.	.	.	.	.	.	.	.	.	.	.	.	.	.	.	.	.	.	.
8F#\	.	.	16F#/	.	16f#/	.	.	.	.	.	.	.	.	.	.	.	.	.	.	.	.	.	.	.	.	.
.	.	.	16F#/JJ	.	16f#/JJ	.	.	.	.	.	.	.	.	.	.	.	.	.	.	.	.	.	.	.	.	.
8D\	.	.	16D/LL	.	16d/LL	.	.	.	.	.	.	.	.	.	.	.	.	.	4D/	.	4D/	.	4d/	.	4d/	.
.	.	.	16D/	.	16d/	.	.	.	.	.	.	.	.	.	.	.	.	.	.	.	.	.	.	.	.	.
8D\J	.	.	16D/	.	16d/	.	.	.	.	.	.	.	.	.	.	.	.	.	.	.	.	.	.	.	.	.
.	.	.	16D/JJ	.	16d/JJ	.	.	.	.	.	.	.	.	.	.	.	.	.	.	.	.	.	.	.	.	.
=6	=6	=6	=6	=6	=6	=6	=6	=6	=6	=6	=6	=6	=6	=6	=6	=6	=6	=6	=6	=6	=6	=6	=6	=6	=6	=6
!	!	!	!	!	!LO:N:vis 4	!	!	!	!	!	!	!	!	!	!	!	!	!	!	!	!	!	!	!	!	!
!	!	!	!	!	!LO:TX:t=P:problem=błędne wyświetlanie	!	!	!	!	!	!	!	!	!	!	!	!	!	!	!	!	!	!	!	!	!
4AA/	1ryy	.	16A/LL	.	16A/LL	.	4A\	O-	.	4e\	O-	.	4g\	O-	.	4cc#\	O-	.	4A/	.	4e\	.	4cc#\	.	4gg\	.
.	.	.	16A/	.	16A/	.	.	.	.	.	.	.	.	.	.	.	.	.	.	.	.	.	.	.	.	.
.	.	.	16A/	.	16A/	.	.	.	.	.	.	.	.	.	.	.	.	.	.	.	.	.	.	.	.	.
.	.	.	16A/	.	16A/	.	.	.	.	.	.	.	.	.	.	.	.	.	.	.	.	.	.	.	.	.
!	!	!	!	!	!	!	!LO:MO:mod=8A	!	!	!	!	!	!	!	!	!LO:SIC:s=8cc#	!	!	!	!	!	!	!	!	!	!
8BB/L	.	.	16A/	.	16A/	.	8.A\L	-san-	.	8e\	-san-	.	8g\	-san-	.	8cc#\L	-san-	.	2A/	.	2e\	.	2cc#\	.	2gg\	.
.	.	.	16A/	.	16A/	.	.	.	.	.	.	.	.	.	.	.	.	.	.	.	.	.	.	.	.	.
!	!	!	!	!	!	!	!LO:MO:null:mod=8A	!LO:MO:null:mod=-na	!	!	!	!	!	!	!	!LO:SIC:s=8cc#	!	!	!	!	!	!	!	!	!	!
8C#/J	.	.	16A/	.	16A/	.	.	.	.	8e\	-na	.	8g\	-na	.	8cc#\J	-na	.	.	.	.	.	.	.	.	.
!	!	!	!	!	!	!	!LO:MO:null:mod=.	!LO:MO:null:mod=.	!	!	!	!	!	!	!	!	!	!	!	!	!	!	!	!	!	!
.	.	.	16A/JJ	.	16A/JJ	.	16A\Jk	-na	.	.	.	.	.	.	.	.	.	.	.	.	.	.	.	.	.	.
*	*	*	*	*	*Xtremolo	*	*	*	*	*	*	*	*	*	*	*	*	*	*	*	*	*	*	*	*	*
8D\L	.	.	16A/LL	.	16B/LL	.	4A\	in	.	4e\	in	.	4g\	in	.	4cc#\	in	.	.	.	.	.	.	.	.	.
.	.	.	16A/	.	16B/	.	.	.	.	.	.	.	.	.	.	.	.	.	.	.	.	.	.	.	.	.
8E\	.	.	16A/	.	16c#/	.	.	.	.	.	.	.	.	.	.	.	.	.	.	.	.	.	.	.	.	.
.	.	.	16A/	.	16c#/JJ	.	.	.	.	.	.	.	.	.	.	.	.	.	.	.	.	.	.	.	.	.
8F#\	.	.	16A/	.	16d/LL	.	4A\	ex-	.	4e\	ex-	.	4g\	ex-	.	4cc#\	ex-	.	4A/	.	4e\	.	4cc#\	.	4gg\	.
.	.	.	16A/	.	16e/	.	.	.	.	.	.	.	.	.	.	.	.	.	.	.	.	.	.	.	.	.
8G\J	.	.	16A/	.	16f#/	.	.	.	.	.	.	.	.	.	.	.	.	.	.	.	.	.	.	.	.	.
.	.	.	16A/JJ	.	16g/JJ	.	.	.	.	.	.	.	.	.	.	.	.	.	.	.	.	.	.	.	.	.
=7	=7	=7	=7	=7	=7	=7	=7	=7	=7	=7	=7	=7	=7	=7	=7	=7	=7	=7	=7	=7	=7	=7	=7	=7	=7	=7
*	*	*	*rep	*	*tremolo	*	*	*	*	*	*	*	*	*	*	*	*	*	*	*	*	*	*	*	*	*
!LO:LB:g=original	!	!	!	!	!	!	!	!	!	!	!	!	!	!	!	!	!	!	!	!	!	!	!	!	!	!
8A\L	1ryy	.	16A/LL	.	16a/LL	.	2A\	-cel-	.	2e\	-cel-	.	2g\	-cel-	.	2cc#\	-cel-	.	4A/	.	4e\	.	4cc#\	.	4gg\	.
.	.	.	16A/	.	16a/	.	.	.	.	.	.	.	.	.	.	.	.	.	.	.	.	.	.	.	.	.
8B\	.	.	16A/	.	16g#X/	.	.	.	.	.	.	.	.	.	.	.	.	.	.	.	.	.	.	.	.	.
.	.	.	16A/	.	16g#/	.	.	.	.	.	.	.	.	.	.	.	.	.	.	.	.	.	.	.	.	.
8c#\	.	.	16A/	.	16gn/	.	.	.	.	.	.	.	.	.	.	.	.	.	2A/	.	2e\	.	2cc#\	.	2gg\	.
.	.	.	16A/	.	16g/	.	.	.	.	.	.	.	.	.	.	.	.	.	.	.	.	.	.	.	.	.
8d\J	.	.	16A/	.	16f#/	.	.	.	.	.	.	.	.	.	.	.	.	.	.	.	.	.	.	.	.	.
.	.	.	16A/JJ	.	16f#/JJ	.	.	.	.	.	.	.	.	.	.	.	.	.	.	.	.	.	.	.	.	.
!	!	!	!	!	!LO:LB:g=original	!	!	!	!	!	!	!	!	!	!	!	!	!	!	!	!	!	!	!	!	!
8e\L	.	.	16A/LL	.	16e/LL	.	2A\	-sis	.	2e\	-sis	.	2g\	-sis	.	2cc#\	-sis	.	.	.	.	.	.	.	.	.
.	.	.	16A/	.	16e/	.	.	.	.	.	.	.	.	.	.	.	.	.	.	.	.	.	.	.	.	.
8F#\	.	.	16A/	.	16d/	.	.	.	.	.	.	.	.	.	.	.	.	.	.	.	.	.	.	.	.	.
.	.	.	16A/	.	16d/	.	.	.	.	.	.	.	.	.	.	.	.	.	.	.	.	.	.	.	.	.
8G\	.	.	16A/	.	16c#/	.	.	.	.	.	.	.	.	.	.	.	.	.	4A/	.	4e\	.	4cc#\	.	8gg\L	.
.	.	.	16A/	.	16c#/	.	.	.	.	.	.	.	.	.	.	.	.	.	.	.	.	.	.	.	.	.
8A\J	.	.	16A/	.	16B/	.	.	.	.	.	.	.	.	.	.	.	.	.	.	.	.	.	.	.	8aa\J	.
.	.	.	16A/JJ	.	16B/JJ	.	.	.	.	.	.	.	.	.	.	.	.	.	.	.	.	.	.	.	.	.
*	*	*	*Xrep	*	*	*	*	*	*	*	*	*	*	*	*	*	*	*	*	*	*	*	*	*	*	*
=8	=8	=8	=8	=8	=8	=8	=8	=8	=8	=8	=8	=8	=8	=8	=8	=8	=8	=8	=8	=8	=8	=8	=8	=8	=8	=8
*tremolo	*	*	*	*	*	*	*	*ij	*	*	*ij	*	*	*	*	*	*	*	*	*	*	*	*	*	*	*
!	!	!	!	!	!	!	!	!	!	!	!	!	!	!	!	!LO:LB:g=original	!	!	!	!	!	!	!	!	!	!
!	!	!	!	!	!	!	!	!	!	!LO:LB:g=original	!	!	!	!	!	!	!	!	!	!	!	!	!	!	!	!
!	!	!	!	!	!	!	!LO:LB:g=original	!	!	!	!	!	!	!	!	!	!	!	!	!	!	!	!	!	!	!
!	!	!	!LO:LB:g=original	!	!	!	!	!	!	!	!	!	!	!	!	!	!	!	!	!	!	!	!	!	!	!
8B\L	1ryy	.	16B/LL	.	16B/LL	.	2G\	O-	.	2B\	O-	.	2e\	O-	.	2b\	O-	.	2r	.	2r	.	2b/	.	2bb\	.
.	.	.	16B/	.	16B/	.	.	.	.	.	.	.	.	.	.	.	.	.	.	.	.	.	.	.	.	.
8B\	.	.	16B/	.	16B/	.	.	.	.	.	.	.	.	.	.	.	.	.	.	.	.	.	.	.	.	.
.	.	.	16B/	.	16B/JJ	.	.	.	.	.	.	.	.	.	.	.	.	.	.	.	.	.	.	.	.	.
8B\	.	.	16B/	.	16b/LL	.	.	.	.	.	.	.	.	.	.	.	.	.	.	.	.	.	.	.	.	.
.	.	.	16B/	.	16b/	.	.	.	.	.	.	.	.	.	.	.	.	.	.	.	.	.	.	.	.	.
8B\J	.	.	16B/	.	16b/	.	.	.	.	.	.	.	.	.	.	.	.	.	.	.	.	.	.	.	.	.
.	.	.	16B/JJ	.	16b/JJ	.	.	.	.	.	.	.	.	.	.	.	.	.	.	.	.	.	.	.	.	.
*Xtremolo	*	*	*	*	*	*	*	*	*	*	*	*	*	*	*	*	*	*	*	*	*	*	*	*	*	*
8G\L	.	.	16G/LL	.	16g/LL	.	4G\	-san-	.	4B\	-san-	.	4e\	-san-	.	4gg\	-san-	.	4e\	.	4g\	.	4g/	.	4gg\	.
.	.	.	16G/	.	16g/	.	.	.	.	.	.	.	.	.	.	.	.	.	.	.	.	.	.	.	.	.
8G\	.	.	16G/	.	16g/	.	.	.	.	.	.	.	.	.	.	.	.	.	.	.	.	.	.	.	.	.
.	.	.	16G/JJ	.	16g/JJ	.	.	.	.	.	.	.	.	.	.	.	.	.	.	.	.	.	.	.	.	.
8E\	.	.	16E/LL	.	16e/LL	.	4G\	-na	.	4B\	-na	.	4e\	-na	.	4ee\	-na	.	4g\	.	4e\	.	4e/	.	4ee\	.
.	.	.	16E/	.	16e/	.	.	.	.	.	.	.	.	.	.	.	.	.	.	.	.	.	.	.	.	.
8E\J	.	.	16E/	.	16e/	.	.	.	.	.	.	.	.	.	.	.	.	.	.	.	.	.	.	.	.	.
.	.	.	16E/JJ	.	16e/JJ	.	.	.	.	.	.	.	.	.	.	.	.	.	.	.	.	.	.	.	.	.
=9	=9	=9	=9	=9	=9	=9	=9	=9	=9	=9	=9	=9	=9	=9	=9	=9	=9	=9	=9	=9	=9	=9	=9	=9	=9	=9
!	!	!	!	!	!	!	!	!	!	!	!	!	!	!	!	!	!	!	!	!	!	!	!	!	!LO:LB:g=original	!
!	!	!	!	!	!	!	!	!	!	!	!	!	!	!	!	!	!	!	!	!	!	!	!LO:LB:g=original	!	!	!
!	!	!	!	!	!	!	!	!	!	!	!	!	!LO:TX:t=P:znaki:cc#f#:problem	!	!	!	!	!	!	!	!	!	!	!	!	!
8BB/L	1ryy	.	16B/LL	.	16B/LL	.	4G\	in	.	4G\	in	.	4e\	In	.	4b\	in	.	4e\	.	4g\	.	4b/	.	4b/	.
.	.	.	16B/	.	16B/	.	.	.	.	.	.	.	.	.	.	.	.	.	.	.	.	.	.	.	.	.
8BB/	.	.	16B/	.	16B/	.	.	.	.	.	.	.	.	.	.	.	.	.	.	.	.	.	.	.	.	.
.	.	.	16B/JJ	.	16B/JJ	.	.	.	.	.	.	.	.	.	.	.	.	.	.	.	.	.	.	.	.	.
8GG/	.	.	16e\LL	.	16g/LL	.	4G\	ex-	.	4B\	ex-	.	4e\	ex-	.	4b\	ex-	.	4g\	.	4e\	.	4g/	.	4g/	.
.	.	.	16e\	.	16g/	.	.	.	.	.	.	.	.	.	.	.	.	.	.	.	.	.	.	.	.	.
8GG/J	.	.	16e\	.	16g/	.	.	.	.	.	.	.	.	.	.	.	.	.	.	.	.	.	.	.	.	.
.	.	.	16e\JJ	.	16g/JJ	.	.	.	.	.	.	.	.	.	.	.	.	.	.	.	.	.	.	.	.	.
8E/L	.	.	16G/LL	.	16e/LL	.	4G\	-cel-	.	4e\	-cel-	.	4e\	-cel-	.	4b\	-cel-	.	4e\	.	4g\	.	4e/	.	4e/	.
.	.	.	16G/	.	16e/	.	.	.	.	.	.	.	.	.	.	.	.	.	.	.	.	.	.	.	.	.
8E/	.	.	16G/	.	16e/	.	.	.	.	.	.	.	.	.	.	.	.	.	.	.	.	.	.	.	.	.
.	.	.	16G/JJ	.	16e/JJ	.	.	.	.	.	.	.	.	.	.	.	.	.	.	.	.	.	.	.	.	.
8BB/	.	.	16E/LL	.	16B/LL	.	4G\	-sis	.	4B\	-sis	.	4e\	-sis	.	4b\	-sis	.	4g\	.	4e\	.	4b/	.	4b/	.
*	*	*	*	*	*	*	*	*Xij	*	*	*Xij	*	*	*	*	*	*	*	*	*	*	*	*	*	*	*
.	.	.	16E/	.	16B/	.	.	.	.	.	.	.	.	.	.	.	.	.	.	.	.	.	.	.	.	.
8BB/J	.	.	16E/	.	16B/	.	.	.	.	.	.	.	.	.	.	.	.	.	.	.	.	.	.	.	.	.
.	.	.	16E/JJ	.	16B/JJ	.	.	.	.	.	.	.	.	.	.	.	.	.	.	.	.	.	.	.	.	.
=10	=10	=10	=10	=10	=10	=10	=10	=10	=10	=10	=10	=10	=10	=10	=10	=10	=10	=10	=10	=10	=10	=10	=10	=10	=10	=10
*	*	*	*	*	*	*	*	*	*	*	*	*	*	*	*	*	*ij	*	*	*	*	*	*	*	*	*
!	!	!	!	!	!	!	!	!	!	!	!	!	!	!	!	!	!	!	!	!	!LO:LB:g=original	!	!	!	!	!
!	!	!	!	!	!	!	!	!	!	!	!	!	!	!	!	!	!	!	!LO:LB:g=original	!	!	!	!	!	!	!
1AA	1ryy	.	16D/LL 16d	.	16A/LL 16f#	.	2D\	O-	.	2A\	O-	.	2f#\	O-	.	2a\	O-	.	4F#/	.	4d\	.	4dd\	.	4ff#\	.
.	.	.	16D/ 16d	.	16A/ 16f#	.	.	.	.	.	.	.	.	.	.	.	.	.	.	.	.	.	.	.	.	.
.	.	.	16D/ 16d	.	16A/ 16f#	.	.	.	.	.	.	.	.	.	.	.	.	.	.	.	.	.	.	.	.	.
.	.	.	16D/ 16d	.	16A/ 16f#	.	.	.	.	.	.	.	.	.	.	.	.	.	.	.	.	.	.	.	.	.
.	.	.	16D/ 16d	.	16A/ 16f#	.	.	.	.	.	.	.	.	.	.	.	.	.	2F#/	.	2d\	.	2dd\	.	2ff#\	.
.	.	.	16D/ 16d	.	16A/ 16f#	.	.	.	.	.	.	.	.	.	.	.	.	.	.	.	.	.	.	.	.	.
.	.	.	16D/ 16d	.	16A/ 16f#	.	.	.	.	.	.	.	.	.	.	.	.	.	.	.	.	.	.	.	.	.
.	.	.	16D/JJ 16d	.	16A/ 16f#	.	.	.	.	.	.	.	.	.	.	.	.	.	.	.	.	.	.	.	.	.
.	.	.	16D/LL 16d	.	16A/ 16f#	.	4D\	-san-	.	4F#/	-san-	.	4f#\	-san-	.	4a\	-san-	.	.	.	.	.	.	.	.	.
.	.	.	16D/ 16d	.	16A/ 16f#	.	.	.	.	.	.	.	.	.	.	.	.	.	.	.	.	.	.	.	.	.
.	.	.	16D/ 16d	.	16A/ 16f#	.	.	.	.	.	.	.	.	.	.	.	.	.	.	.	.	.	.	.	.	.
.	.	.	16D/ 16d	.	16A/ 16f#	.	.	.	.	.	.	.	.	.	.	.	.	.	.	.	.	.	.	.	.	.
.	.	.	16D/ 16d	.	16A/ 16f#	.	4D\	-na	.	4d\	-na	.	4f#\	-na	.	4a\	-na	.	4F#/	.	4d\	.	4dd\	.	4ff#\	.
.	.	.	16D/ 16d	.	16A/ 16f#	.	.	.	.	.	.	.	.	.	.	.	.	.	.	.	.	.	.	.	.	.
.	.	.	16D/ 16d	.	16A/ 16f#	.	.	.	.	.	.	.	.	.	.	.	.	.	.	.	.	.	.	.	.	.
.	.	.	16D/JJ 16d	.	16A/JJ 16f#	.	.	.	.	.	.	.	.	.	.	.	.	.	.	.	.	.	.	.	.	.
=11	=11	=11	=11	=11	=11	=11	=11	=11	=11	=11	=11	=11	=11	=11	=11	=11	=11	=11	=11	=11	=11	=11	=11	=11	=11	=11
1AA	1ryy	.	16c#\LL	.	16A/LL 16g	.	4A\	in	.	4e\	in	.	4g\	in	.	4cc#\	in	.	4A/	.	4e\	.	4cc#\	.	4gg\	.
.	.	.	16c#\	.	16A/ 16g	.	.	.	.	.	.	.	.	.	.	.	.	.	.	.	.	.	.	.	.	.
.	.	.	16c#\	.	16A/ 16g	.	.	.	.	.	.	.	.	.	.	.	.	.	.	.	.	.	.	.	.	.
.	.	.	16c#\	.	16A/ 16g	.	.	.	.	.	.	.	.	.	.	.	.	.	.	.	.	.	.	.	.	.
.	.	.	16c#\	.	16A/ 16g	.	4A\	ex-	.	4e\	ex-	.	4g\	ex-	.	4cc#\	ex-	.	2A/	.	2e\	.	2cc#\	.	2gg\	.
.	.	.	16c#\	.	16A/ 16g	.	.	.	.	.	.	.	.	.	.	.	.	.	.	.	.	.	.	.	.	.
.	.	.	16c#\	.	16A/ 16g	.	.	.	.	.	.	.	.	.	.	.	.	.	.	.	.	.	.	.	.	.
.	.	.	16c#\JJ	.	16A/ 16g	.	.	.	.	.	.	.	.	.	.	.	.	.	.	.	.	.	.	.	.	.
.	.	.	16c#\LL	.	16A/ 16g	.	2AA/	-cel-	.	2c#\	-cel-	.	2e\	-cel-	.	2a\	-cel-	.	.	.	.	.	.	.	.	.
.	.	.	16c#\	.	16A/ 16g	.	.	.	.	.	.	.	.	.	.	.	.	.	.	.	.	.	.	.	.	.
.	.	.	16c#\	.	16A/ 16g	.	.	.	.	.	.	.	.	.	.	.	.	.	.	.	.	.	.	.	.	.
.	.	.	16c#\	.	16A/ 16g	.	.	.	.	.	.	.	.	.	.	.	.	.	.	.	.	.	.	.	.	.
.	.	.	16c#\	.	16A/ 16g	.	.	.	.	.	.	.	.	.	.	.	.	.	4A/	.	4e\	.	4cc#\	.	4gg\	.
.	.	.	16c#\	.	16A/ 16g	.	.	.	.	.	.	.	.	.	.	.	.	.	.	.	.	.	.	.	.	.
.	.	.	16c#\	.	16A/ 16g	.	.	.	.	.	.	.	.	.	.	.	.	.	.	.	.	.	.	.	.	.
.	.	.	16c#\JJ	.	16A/JJ 16g	.	.	.	.	.	.	.	.	.	.	.	.	.	.	.	.	.	.	.	.	.
*	*	*	*Xtremolo	*	*Xtremolo	*	*	*	*	*	*	*	*	*	*	*	*	*	*	*	*	*	*	*	*	*
=12	=12	=12	=12	=12	=12	=12	=12	=12	=12	=12	=12	=12	=12	=12	=12	=12	=12	=12	=12	=12	=12	=12	=12	=12	=12	=12
*	*clefG2	*	*	*	*	*	*	*	*	*	*	*	*	*	*	*	*	*	*	*	*	*	*	*	*	*
!	!	!LO:MO:null:mod=!LO&colon;DY&colon;ed=brack	!	!LO:MO:null:mod=!LO&colon;DY&colon;ed=brack	!	!LO:MO:null:mod=!LO&colon;DY&colon;ed=brack	!	!	!LO:MO:null:mod=!LO&colon;DY&colon;ed=brack	!	!	!LO:MO:null:mod=!LO&colon;DY&colon;ed=brack	!	!	!LO:MO:null:mod=!LO&colon;DY&colon;ed=brack	!	!	!	!	!	!	!	!	!	!	!
!	!	!	!	!	!	!	!	!	!	!	!	!	!	!	!	!	!	!	!	!	!	!	!	!	!	!
!	!LO:TX:t=P:problem=klucz g2 zapisany na 4. linii	!LO:MO:null:mod=p	!	!LO:MO:null:mod=p	!	!LO:MO:null:mod=p	!	!	!LO:MO:null:mod=p	!	!	!LO:MO:null:mod=p	!	!	!LO:MO:null:mod=p	!	!LO:DY:a:t=po	!	!LO:DY:b:t=p.	!	!LO:DY:b:t=p.	!	!LO:DY:b:t=po.	!	!LO:DY:b:t=po	!
4D\	8r	.	4d\	.	4A/ 4f#	.	4D/	-sis	.	4d\	-sis	.	4f#\	-sis	.	4a\	-sis	p	8F#/	p	8d\	p	8dd\	p	8ff#\	p
*	*	*	*	*	*	*	*	*	*	*	*	*	*	*	*	*	*Xij	*	*	*	*	*	*	*	*	*
.	16bb/LL	.	.	.	.	.	.	.	.	.	.	.	.	.	.	.	.	.	8r	.	8r	.	8r	.	8r	.
.	16aa/JJ	.	.	.	.	.	.	.	.	.	.	.	.	.	.	.	.	.	.	.	.	.	.	.	.	.
4r	(8ff#/L	.	4r	.	4r	.	4r	.	.	4r	.	.	4r	.	.	4r	.	.	4r	.	4r	.	4r	.	4r	.
.	8dd/J)	.	.	.	.	.	.	.	.	.	.	.	.	.	.	.	.	.	.	.	.	.	.	.	.	.
4A\	8r	.	4A/	.	4A/ 4g	.	2r	.	.	2r	.	.	2r	.	.	2r	.	.	8A/	.	8e\	.	8cc#\	.	8gg\	.
.	16bb/LL	.	.	.	.	.	.	.	.	.	.	.	.	.	.	.	.	.	8r	.	8r	.	8r	.	8r	.
.	16aa/JJ	.	.	.	.	.	.	.	.	.	.	.	.	.	.	.	.	.	.	.	.	.	.	.	.	.
4r	8gg/L	.	4r	.	4r	.	.	.	.	.	.	.	.	.	.	.	.	.	4r	.	4r	.	4r	.	4r	.
.	8ee/J	.	.	.	.	.	.	.	.	.	.	.	.	.	.	.	.	.	.	.	.	.	.	.	.	.
=13	=13	=13	=13	=13	=13	=13	=13	=13	=13	=13	=13	=13	=13	=13	=13	=13	=13	=13	=13	=13	=13	=13	=13	=13	=13	=13
!	!	!	!	!	!	!	!	!	!	!LO:TX:a:i:t=4	!	!	!	!	!	!	!	!	!	!	!LO:TX:t=P:problem=takt zapisany repetycją	!	!	!	!	!
!	!	!	!	!	!	!	!	!	!	!	!	!	!	!	!	!	!	!	!	!	!	!LO:DY:b:t=p.	!	!	!	!
!	!	!	!	!	!	!	!	!	!	!	!	!	!	!	!	!	!	!	!	!	!	!LO:MO:null:mod=.	!	!	!	!
4D\	8r	.	8F#/	.	8A/	.	1r	.	.	1r	.	.	1r	.	.	1r	.	.	8F#/	.	8d\	p	8dd\	.	8ff#\	.
.	16dd/LL	.	8r	.	8r	.	.	.	.	.	.	.	.	.	.	.	.	.	8r	.	8r	.	8r	.	8r	.
.	16ff#/JJ	.	.	.	.	.	.	.	.	.	.	.	.	.	.	.	.	.	.	.	.	.	.	.	.	.
4r	(8bb/L	.	4r	.	4r	.	.	.	.	.	.	.	.	.	.	.	.	.	4r	.	4r	.	4r	.	4r	.
.	16aa/Jk)	.	.	.	.	.	.	.	.	.	.	.	.	.	.	.	.	.	.	.	.	.	.	.	.	.
.	16r	.	.	.	.	.	.	.	.	.	.	.	.	.	.	.	.	.	.	.	.	.	.	.	.	.
!LO:LB:g=original	!	!	!	!	!	!	!	!	!	!	!	!	!	!	!	!	!	!	!	!	!	!	!	!	!	!
4A\	8r	.	8C#/	.	8A/	.	.	.	.	.	.	.	.	.	.	.	.	.	8A/	.	8e\	.	8cc#\	.	8ee\	.
.	16cc#/LL	.	8r	.	8r	.	.	.	.	.	.	.	.	.	.	.	.	.	8r	.	8r	.	8r	.	8r	.
.	16ee/JJ	.	.	.	.	.	.	.	.	.	.	.	.	.	.	.	.	.	.	.	.	.	.	.	.	.
4r	(8bb/L	.	4r	.	4r	.	.	.	.	.	.	.	.	.	.	.	.	.	4r	.	4r	.	4r	.	4r	.
.	16aa/Jk)	.	.	.	.	.	.	.	.	.	.	.	.	.	.	.	.	.	.	.	.	.	.	.	.	.
.	16r	.	.	.	.	.	.	.	.	.	.	.	.	.	.	.	.	.	.	.	.	.	.	.	.	.
=14	=14	=14	=14	=14	=14	=14	=14	=14	=14	=14	=14	=14	=14	=14	=14	=14	=14	=14	=14	=14	=14	=14	=14	=14	=14	=14
!	!	!	!	!	!	!	!	!	!	!	!	!	!	!	!	!	!	!	!	!	!	!	!	!	!	!LO:DY:b:t=pp.
!	!	!	!	!	!	!	!	!	!	!	!	!	!	!	!	!	!	!	!	!	!	!	!	!LO:DY:b:t=pp.	!	!
!	!	!	!	!	!	!	!	!	!	!	!	!	!	!	!	!	!	!	!	!	!	!LO:DY:b:t=pp.	!	!	!	!
!	!	!	!	!	!	!	!	!	!	!	!	!	!	!	!	!	!	!	!	!LO:DY:b:t=pp&colon;	!	!	!	!	!	!
!	!	!	!	!	!	!	!LO:TX:t=P:problem=brak taktów	!	!	!	!	!	!	!	!	!	!	!	!	!	!	!	!	!	!	!
1r	1ryy	.	4D/	.	4A/ 4f#	.	1ryy	.	.	1r	.	.	1r	.	.	1r	.	.	4F#/	pp	4d\	pp	4f#/	pp	4dd\	pp
.	.	.	4D/	.	4r	.	.	.	.	.	.	.	.	.	.	.	.	.	4r	.	4r	.	4r	.	4r	.
.	.	.	4E/	.	4A/ 4g	.	.	.	.	.	.	.	.	.	.	.	.	.	4A/	.	4e\	.	2r	.	2r	.
.	.	.	4E/	.	4r	.	.	.	.	.	.	.	.	.	.	.	.	.	4r	.	4r	.	.	.	.	.
=15	=15	=15	=15	=15	=15	=15	=15	=15	=15	=15	=15	=15	=15	=15	=15	=15	=15	=15	=15	=15	=15	=15	=15	=15	=15	=15
!	!	!	!	!	!	!	!	!	!	!	!	!	!	!	!	!	!	!	!	!	!	!LO:DY:b:t=ppp&colon;	!	!	!	!
!	!	!	!	!	!	!	!	!	!	!	!	!	!	!	!	!	!	!	!	!LO:DY:b:t=ppp&colon;	!	!	!	!	!	!
2r	1ryy	.	4D/	.	4A/ 4f#	.	1ryy	.	.	1r	.	.	1r	.	.	1r	.	.	4F#/	ppp	4d\	ppp	1r	.	1r	.
.	.	.	4D/	.	4A/ 4f#	.	.	.	.	.	.	.	.	.	.	.	.	.	2F#/	.	2d\	.	.	.	.	.
!	!	!LO:DY:b:t=po	!	!	!	!	!	!	!	!	!	!	!	!	!	!	!	!	!	!	!	!	!	!	!	!
4D\	.	p	4D/	.	4A/ 4f#	.	.	.	.	.	.	.	.	.	.	.	.	.	.	.	.	.	.	.	.	.
4D\	.	.	4D/	.	4A/ 4f#	.	.	.	.	.	.	.	.	.	.	.	.	.	4F#/	.	4d\	.	.	.	.	.
=16	=16	=16	=16	=16	=16	=16	=16	=16	=16	=16	=16	=16	=16	=16	=16	=16	=16	=16	=16	=16	=16	=16	=16	=16	=16	=16
!	!	!	!	!	!	!	!	!	!	!	!	!	!LO:TX:b:t=Volti Subito	!	!	!	!	!	!LO:N:vis=2	!	!	!	!	!	!	!
2D\	1ryy	.	2.D/	.	2.A/ 2.f#	.	1ryy	.	.	1r	.	.	1r	.	.	1r	.	.	2.F#/	.	2.d\	.	1r	.	1r	.
2r	.	.	.	.	.	.	.	.	.	.	.	.	.	.	.	.	.	.	.	.	.	.	.	.	.	.
.	.	.	4r	.	4r	.	.	.	.	.	.	.	.	.	.	.	.	.	4r	.	4r	.	.	.	.	.
==	==	==	==	==	==	==	==	==	==	==	==	==	==	==	==	==	==	==	==	==	==	==	==	==	==	==
*-	*-	*-	*-	*-	*-	*-	*-	*-	*-	*-	*-	*-	*-	*-	*-	*-	*-	*-	*-	*-	*-	*-	*-	*-	*-	*-
!!!system-decoration: [(s1,s2)][(s3,s4)][(s5,s6,s7,s8)][(s9,s10)]{(s11,s12)}
!!!ENC: Filip Voros
!!!END: 2021-12-08
!!!ENC: Kamil Watkowski
!!!END: 2021-12-10
!!!ENC-modern: Andrzej Borzym
!!!END-modern: 2022-08-25
